!!!COM: Georges Bizet
!!!CNT: Francais
!!!TXO: Francais
!!!OTL: Sonnet
!!!LYR: Pierre Ronsard
!!!OPR: Feuilles d'Album
!!!ONM: No. 4
!!!ENC: Jacob Pegg
!!!YOR: Romantic French Song 1830-1870 -David Tunley, ed.,
!!!YOR: New York: Garland Publishing, Inc., 1995, Vol. 4
!!!ODT: 1866/
!!NB: Vocal melody and text only encoded.
!!NB: First instance of melodic material only encoded.
**kern	**silbe
*clef G2	*
*k[b-e-a-d-]	*
*M6/8	*
!!created: 5/11/03 21:56
!!proofed and posted: 5/11/03 23:42
!!edit time: 92 min.
=6	=6
{8.cc	{Vous
16b-	me/-
8a-	-pri-
4g	-sez
8f	na-
=7	=7
[4.en	-tu-
8en]}	-re:}
8r	.
{8f	{e^-
=8	=8
4g	-tes~
8a-	~vous
4f	si
8g	cru-
=9	=9
(8.a-	-el-
16g	|
8f)	|
4g}	-le}
8r	.
=10	=10
{8.cc	{e^-
16b-	-tes~
8a-	~vous
4g	si
8f	cru-
=11	=11
4.en	-el-
4en}	-le}
{8f	{De
=12	=12
4g	ne
8a-	vou-
(8.g	-loir
16f)	|
8en	ai-
=13	=13
[2.f	-mer?
=14	=14
4f]}	|}
8r	.
4r	.
8r	.
=15	=15
4r	.
8r	.
{8.a-	{vo-
16g	-yez
8a-	les
=16	=16
4b-	pas-
8b-	-se-
8.dd-}	-reaux,}
{16cc	{Qui
8b-	de/-
=17	=17
8a-	-me\-
8g	-nent
8a-	l'a-
[4.b-	-mour,
=18	=18
4b-]}	|}
8r	.
8.r	.
16r	.
8r	.
!!19 and 20 are repeats or 17 and 18
=21	=21
4r	.
8r	.
{8b-	{vo-
8cc	-yez
8dd-	la
=22	=22
4ee-	tour-
8a-	-te-
(4cc	-rel-
8b-)	|
=23	=23
[2.a-	-le.
=24	=24
4a-]}	|}
8r	.
4r	.
8r	.
=25	=25
4r	.
{8e-	{Vo-
(8.ee-	-yez
16dd-)	|
8cc	de
=26	=26
4b-	c5a,
8b-	de-
8.dd-	-la\,
16cc	d'u-
8b-	-ne
=27	=27
8a-	fre/-
8b-	-til-
8e-	-lan-
(8.ee-	-te ai-
16dd-)	|
8cc}	-le,}
=28	=28
{8.b-	{Vo-
16cc	-le-
8b-	-ter
8.dd-	par
16cc	les
8b-	bois
=29	=29
8a-	les
8b-	a-
8a-	-mou-
(8.cc	-reux
16b-)	|
8a-	oi-
=30	=30
[2.g	-seaux!
=31	=31
16g]}	|}
16r	.
{8g	{Vo-
8een	-yez
8.ddn	la
16cc	jeu-
8bn	-ne
=32	=32
(4cc	vi-
8g)	|
4.g}	-gne}
=33	=33
8r	.
{8g	{em-
8een	-bras-
(16ddnq	-ser
16eenq	|
8.ddn)	|
16cc	les
8bn	or-
=34	=34
2.cc}	-neaux,}
=35	=35
4r	.
{8cc	{Et
4f	tou-
8ff	-te
=36	=36
4een	cho-
8ddn	-se
4cc	ri-
8b-	-re en
=37	=37
4an	la
8f	sai-
(8g	-son
8an)	|
8b-	nou-
=38	=38
(4.an	-vel-
4.g)	|
=39	=39
[2.f	-le!
=40	=40
4f]}	|}
8r	.
4r	.
8r	.
!!mm. 41-48 repeat
=49	=49
8r	.
8r	.
{8cc	{i-
[4.cc	-ci,
=50	=50
8cc]}	|}
8r	.
{8b-	{tou-
(8a-	-te
8g)	|
8f	chose
=51	=51
4a-	ai-
16g}	-me,}
16r	.
{[4.ee-	{Tout
=52	=52
4ee-]	|
8dd-	nous
8cc	par-
8b-	-le
8a-	d'a-
=53	=53
(4cc	-mour,
16b-)}	|}
16r	.
{4ff	{tout
8ee-	nous
=54	=54
(8.ee-	par-
16dd-	|
8ee-)	|
4cc	-le
8dd-	d'a-
=55	=55
(4cc	-mour,
16b-)}	|}
16r	.
{4dd-	{tout
8cc	s'en
=56	=56
(8.cc	veut
16b-	|
8cc)	|
4a-	en-
8b-	-flam-
=57	=57
[4.g	-mer!
4g_	|
(16.g]	|
32a-	|
=58	=58
[4.g)	|
4g]}	|}
8r	.
=59	=59
{8.cc	{Seu-
16b-	-le-
8a-	-ment
4g	vo-
8f	-tre
=60	=60
[4.en	coeur,
8en]}	|}
8r	.
{8f	{froid
=61	=61
4g	d'u-
8a-	-ne
4f	glace
8g	ex-
=62	=62
(8.a-	-tre^-
16g	|
8f)	|
4g}	-me,}
8r	.
=63	=63
{8.cc	{De-
16b-	-meure
8a-	o-
4g	-pi-
8f	-ni-
=64	=64
[2.dd-	-a^-
=65	=65
4.dd-_	|
4dd-]}	-tre}
8r	.
=66	=66
{(4.cc	{Et
[4.ff)	|
=67	=67
4.ff]	|
4ee-	ne
8dd-	veut
=68	=68
(8cc	pas
8b-	|
16a-)}	|}
16r	.
{(8g	{ne
8a-)	|
8f	veut
=69	=69
16g	pas
16a-	|
16g	|
16f	|
16a-	|
32g	|
32a-	|
[4g;	|
16g]	|
16f	ai-
=70	=70
[2.f	-mer!
=71	=71
4f]}	|}
8r	.
4r	.
8r	.
*-	*-
